icons/folder-linux.svg

<svg xmlns="http://www.w3.org/2000/svg" viewBox="0 0 32 32">
  <path d="M13.84376,7.53645l-1.28749-1.0729A2,2,0,0,0,11.27591,6H4A2,2,0,0,0,2,8V24a2,2,0,0,0,2,2H28a2,2,0,0,0,2-2V10a2,2,0,0,0-2-2H15.12412A2,2,0,0,1,13.84376,7.53645Z" style="fill: #f9a825"/>
  <path d="M24.6197,16.35088c-.41993.28-1.74972,1.03978-1.94976,1.1898a.82458.82458,0,0,1-1.13975-.01c-.2-.16-1.52983-.91977-1.94974-1.1898-.47994-.30985-.44994-.69973.08-.91959a6.16362,6.16362,0,0,1,4.90922.02984C25.05963,15.66115,25.07963,16.051,24.6197,16.35088ZM31.83841,23.629a19.08879,19.08879,0,0,0-3.83933-5.6584A4.31014,4.31014,0,0,1,26.93919,16.091c-.09986-.32987-.16987-.66974-.23989-1.00977a11.32049,11.32049,0,0,0-.69981-2.60926A4.06435,4.06435,0,0,0,22.16,10.00275,4.20289,4.20289,0,0,0,18.21081,12.402a5.89244,5.89244,0,0,0-.45994,1.33963c-.17.75992-.32007,1.54966-.49993,2.31941a3.3801,3.3801,0,0,1-.95988,1.7095,19.53138,19.53138,0,0,0-3.87934,5.34853,6.06361,6.06361,0,0,0-.3699.87976c-.19.65973.28988,1.11961.98971.95976.43992-.09.87985-.18,1.29978-.31.40991-.14985.57-.05.67.35a6.72974,6.72974,0,0,0,4.23925,4.49861c4.11939,1.55966,8.92859-.65973,9.96832-4.57862.07-.27.17-.36988.46993-.27.45994.14.92988.24,1.3998.35a.72415.72415,0,0,0,.91988-.63989A1.44141,1.44141,0,0,0,31.83841,23.629Z" style="fill: #ffecb3"/>
</svg>

<svg xmlns="http://www.w3.org/2000/svg" viewBox="0 0 32 32"><path fill="#f9a825" d="m13.844 7.536-1.288-1.072A2 2 0 0 0 11.276 6H4a2 2 0 0 0-2 2v16a2 2 0 0 0 2 2h24a2 2 0 0 0 2-2V10a2 2 0 0 0-2-2H15.124a2 2 0 0 1-1.28-.464Z"/><path fill="#ffecb3" d="M24.62 16.35c-.42.28-1.75 1.04-1.95 1.19a.825.825 0 0 1-1.14-.01c-.2-.16-1.53-.92-1.95-1.19-.48-.309-.45-.699.08-.919a6.164 6.164 0 0 1 4.91.03c.49.21.51.6.05.9Zm7.218 7.279A19.089 19.089 0 0 0 28 17.971a4.31 4.31 0 0 1-1.06-1.88c-.1-.33-.17-.67-.24-1.01a11.32 11.32 0 0 0-.7-2.609 4.064 4.064 0 0 0-3.839-2.47 4.203 4.203 0 0 0-3.95 2.4 5.892 5.892 0 0 0-.46 1.34c-.17.76-.32 1.55-.5 2.319a3.38 3.38 0 0 1-.959 1.71 19.531 19.531 0 0 0-3.88 5.348 6.064 6.064 0 0 0-.37.88c-.19.66.29 1.12.99.96.44-.09.88-.18 1.3-.31.41-.15.57-.05.67.35a6.73 6.73 0 0 0 4.24 4.498c4.119 1.56 8.928-.66 9.968-4.578.07-.27.17-.37.47-.27.46.14.93.24 1.4.35a.724.724 0 0 0 .92-.64 1.441 1.441 0 0 0-.16-.73Z"/></svg>
